X:1
T:In queste amate
T:In queste amate
T:Giovanni Maria Artusi
T:Source : Canzonette a 4 voci---Libro primo---Venetia---G.Vincenti---1598. Editor : André Vierendeels (21/02/14).
C:Giovanni Maria Artusi
%%score [ 1 2 3 4 ]
L:1/8
Q:1/4=80
M:4/4
K:C
V:1 treble nm="Canto 1" snm="C 1"
V:2 treble nm="Canto 2" snm="C 2"
V:3 treble nm="Alto" snm="A"
V:4 treble-8 nm="Tenor" snm="T"
V:1
 d4 d2 e2 | c4 d2 g2 | f4 e4 | d2 e2 d4 | e4 d4 | d2 d2 d4 | e2 ee e2 e2 | d8 | d8 | B4 B2 c2 | %10
w: In que- ste'a-|ma- te, a-|ma- te|spon- * *|de, al|mor- mo- rar,|al mor- lo- rar del-|l'on-|de,|in que- ste'a-|
 A2 c2 B2 AG | A2 B2 c4- | c2 BA B4 | c4 B4 | B2 B2 B4 | c2 cc c4- | c2 B2 A4 | B8 | %18
w: ma- te spon- * *|||de, al|mor- mo- rar,|al mor- mo- rar|_ del- l'on-|de,|
[M:3/4] c2 c2 B2 | A4 A2 | B4 B2 |[M:4/4] z2 c2 B2 c2- | cB c2 e2 e2 | z2 A2 B2 c2- | cB c2 e2 e2 | %25
w: so- vra l'her-|bet- t'ei|fio- ri,|d'a- mor col-|* fer' i frut- ti,|d'a- mor col-|* fer' i frut- ti,|
 z2 A2 ^G2 A2 |"^-natural" G4 c4- | c4 B4 | A2 B2 A4 | B8 |[M:3/4] e2 e2 d2 | d4 c2 | e4 e2 | %33
w: i frut- ti-|A- min-|ta ta'e|Clo- * *|ri,|so- vra l'her-|bet- t'ei|fio- ri,|
[M:4/4] z2 e2 e4 | z2 A2 B2 c2- | cB c2 e2 e2 | z2 A2 B2 c2- | cB c2 e2 e2 | e8 | e4 d4 | d8 | %41
w: d'a- mor,|d'a- mor col-|* fer' i frut- ti,|d'a- mor col-|* fer' i frut- ti-|A-|min- ta'e|Clo-|
 d8 |] %42
w: ri.|
V:2
 B4 B2 c2 | A2 c2 B2 AG | A2 B2 c4- | c2 BA B4 | c4 B4 | B2 B2 B4 | c2 cc c4- | c2 B2 A4 | B8 | %9
w: In que- ste'a-|ma- te spon- * *|||de, al|mor- mo- tar,|al mor- mo- rar|_ del- l'on-|de,|
 d4 d2 e2 | c4 d2 g2 | f4 e4 | d2 e2 d4 | e4 d4 | d2 d2 d4 | e2 ee e2 e2 | d8 | d8 | %18
w: in que- ste'a-|ma- te, a-|ma- te|spon- * *|de, al|mor- mo- rar,|al mor- mo- rar del-|l'on-|de,|
[M:3/4] e2 e2 d2 | d4 c2 | e4 e2 |[M:4/4] z2 e2 e4 | z2 A2 B2 c2- | cB c2 e2 e2 | z2 A2 B2 c2- | %25
w: so- vra l'her-|bet- t'ei|fio- ri,|d'a- mor,|d'a- mor col|_ fer' i frut- ti|d'a- mor col-|
 cB c2 e2 e2 | e8 | e4 d4 | d8 | d8 |[M:3/4] c2 c2 B2 | A4 A2 | B4 B2 |[M:4/4] z2 c2 B2 c2- | %34
w: * fer' i frut- ti,|A-|min- ta'e|Clo-|ri|so- vra l'her-|bet- t'ei|fio- ri,|d'a- mor col-|
 cB c2 e2 e2 | z2 A2 B2 c2- | cB c2 e2 e2 | z2 A2 ^G2 A2 |"^-natural" G4 c4- | c4 B4 | A2 B2 A4 | %41
w: * fer' i frut- ti,|d'a- mor col-|* fer' i frut- ti,|i frut- ti|A- min-|* ta'e|Clo- * *|
 B8 |] %42
w: ri.|
V:3
 G4 G2 E2 | F2 A2 G2 FE | F8 | G8 | C4 G4 | G2 G2 G4 | G2 GG G2 G2 | ^F2 G4 F2 | G8 | G4 G2 E2 | %10
w: In que- ste'a-|ma- te spon- * *|||de, al|mor- mo- rar,|al mor- mo- rar del-|l'on- * *|de,|in que- ste'a-|
 F2 A2 G2 FE | F8 | G8 | C4 G4 | G2 G2 G4 | G2 GG G2 G2 | ^F2 G4 F2 | G8 |[M:3/4] G2 G2 G2 | %19
w: ma- te spon- * *|||de, al|mor- mo- rar,|al mor- mo- rar del-|l'on- * *|de,|so- vra l'her-|
 F4 A2 | ^G4 G2 |[M:4/4] z8 | z2 A2 ^G2 A2- |"^-natural" AG F2 E2 A,2 | z2 A2 ^G2 A2- | %25
w: bet- t'ei|fio- ri,||d'a- mor col|_ fer' i frut- ti|d'a- mor col|
"^-natural" AG F2 E2 A,2 | E4 G4 | G2 G2 G4 | ^F2 G4 F2 | G8 |[M:3/4] G2 G2 G2 | F4 A2 | ^G4 G2 | %33
w: _ fer' i frut- ti,|A- min-|ta e Clo-||ri,|so- vra l'her-|bet- t'ei|fio- ri,|
[M:4/4] z8 | z2 A2 ^G2 A2- |"^-natural" AG F2 E2 A,2 | z2 A2 ^G2 A2- |"^-natural" AG F2 E2 A,2 | %38
w: |d'a- mor col-|* fer'- i frut- ti,|d'a- mor col-|* fer' i frut- ti|
 E4 G4 | G2 G2 G4 | ^F2 G4 F2 | G8 |] %42
w: A- min-|ta e Clo-||ri.|
V:4
 z8 | z8 | z8 | z8 | z4 G4 | G2 G2 G4 | c2 cc c2 c2 | d8 | G8 | z8 | z8 | z8 | z8 | z4 G4 | %14
w: ||||al|mor- mo- rar,|am mor- mo- rar del-|l'on-|de|||||al|
 G2 G2 G4 | c2 cc c2 c2 | d8 | G8 |[M:3/4] c2 c2 G2 | d4 f2 | e4 e2 |[M:4/4] z2 a2 ^g2 a2- | %22
w: mor- mo- rar,|am mor- mo- rar del-|l'on-|de,|so- vra l'her-|bet- t'ei|flo- ri,|d'a- mor col|
"^-natural" ag f2 e2 A2 | z2 a2 ^g2 a2- |"^-natural" ag f2 e2 A2 | z8 | c8 | c4 G4 | d8 | G8 | %30
w: _ fer' i frut- ti,|d'a- mor col-|* fer' i frut- ti,||A-|min- ta'e|Clo-|ri,|
[M:3/4] c2 c2 G2 | d4 f2 | e4 e2 |[M:4/4] z2 a2 ^g2 a2- |"^-natural" ag f2 e2 A2 | z2 a2 ^g2 a2- | %36
w: so- vra l'her-|bet- t'ei|fio- ri,|d'a- mor col-|* fer' i frut- ti,|d'a- mor col-|
"^-natural" ag f2 e2 A2 | z8 | c8 | c4 G4 | d8 | G8 |] %42
w: * fer' i frut- ti,||A-|min- ta'e|Clo-|ri.|

